X: 26826
T: Millstream, The
R: reel
M: 4/4
K: Gmajor
BC|dGBG AGEG|dGBG c2ce|dGBG AGEG|dGBA G2|
AG|Adde =fefd|dggf g2ag|fdd=f ecce|dBcA G2AG|
Adde =fefd|dggf gbag|fdd=f ecce|dBcA G2||

